public/avatar/shoe/117.svg

<svg xmlns:xlink="http://www.w3.org/1999/xlink" height="38.3" width="36.05" xmlns="http://www.w3.org/2000/svg"><use height="22.05" transform="translate(7.85 6.3)" width="24.35" xlink:href="#a"/><defs><g id="a"><path d="M-6.4-1.2q-1.25-1.25.1-2.5-.55-.85-.05-1.9l.6-.9.15-.3q4.95-1.65 10.7-.95 1.5.9 1.55 12.5.75.05 1.3.65l.4 1.55q.15 1.35-.1 1.7L6.85 10q-1.2.95-1.25.3V8.75L3.65 9.8v1.9q-3.95 1.75-4.3.95l-.15-1.5-2.75.55v1.55q-.2.5-5.1 0l-.15-1.35-2.1-.35-.15 1.25-2.55.1q-1.75-.4-2.15-1.25-.55-2.6.4-3.35l1.1-.25q-.05-2.9.6-3.8.6-.95 3.4-1.75.85-1.35 2.65-1.35-.7-1.9 1.2-2.35" fill-rule="evenodd" transform="translate(15.95 8.55)"/><path d="M1.95 16.75q6.15 2.3 13.45.35 5.95-1.55 7.05-3.4" fill="none" stroke="#fff" stroke-linecap="round" stroke-linejoin="round" stroke-width=".5"/><path d="M-9.1 2.5q0-.95 1.55-.75l3.65.55q-.85 1.2-1.95 1.5-1.05-.85-3.25-1.3" fill="#ffcd00" fill-rule="evenodd" transform="translate(15.95 8.55)"/><path d="m-8.35 2.65 4.05.15-1.55 1q-.75-.6-2.5-1.15" fill="#ff7800" fill-rule="evenodd" transform="translate(15.95 8.55)"/><path d="m.7-.95-8.85-.6-.4-.3-.1-.75q0-2.75 1.9-4.6h.1q.75-1.1 6.4-1.35l6.5.3.25.2q1.95 3.45 1.6 5.5L7.65-2Q6.35-1.1.7-.95" fill="#9a0000" fill-rule="evenodd" transform="translate(15.95 8.55)"/><path d="m1.2-1.95-8.3-.5q-.3-.55.3-2.15.65-1.6 1.2-2 .35-.7 5.3-.95l5.65.2q1.5 3 1.3 4.4-.15.7-5.45 1" fill="#ffcd00" fill-rule="evenodd" transform="translate(15.95 8.55)"/><path d="M6.65-2.95q-.15.35-1.2.5-9.3-.8-12.2-2.3.6-1.45 1.15-1.85.35-.7 5.3-.95l5.65.2q1.5 3 1.3 4.4" fill="#ff6900" fill-rule="evenodd" transform="translate(15.95 8.55)"/><path d="M-1.4 5.8Q0 7.95-.15 8.2l-2.6.6Q-3.5 6.55-4.9 4.75l1.65-1.3q.45.3 1.85 2.35" fill="#ff0" fill-rule="evenodd" transform="translate(15.95 8.55)"/><path d="m-3.4 7.3 2.05-1.4Q0 7.95-.15 8.2l-2.6.6-.65-1.5" fill="#ffb400" fill-rule="evenodd" transform="translate(15.95 8.55)"/><path d="M2.35 3.55q1.8 2.75 1.5 3.1L1.25 7.7q.85-.7-3.5-5.5L-.8.05Q.4.7 2.35 3.55" fill="#ff0" fill-rule="evenodd" transform="translate(15.95 8.55)"/><path d="M3.85 6.65 1.25 7.7q.2-.2-1.3-2.65l1.7-2.4q2.6 3.4 2.2 4" fill="#ffb400" fill-rule="evenodd" transform="translate(15.95 8.55)"/><path d="M-3.5-2.45q1.25 1.9.7 4.5-.25.9-1 .85-.3-.75-1.25-1.65Q-7.1-.7-10.6.7q-.5 0-1.75-1.45-1.25-1.5-.9-1.95 7.5-3.05 9.75.25" fill="#050505" fill-rule="evenodd" transform="translate(15.95 8.55)"/><path d="M-3.4-2.2q1.25 1.85.65 4.5-.15.9-1 .85Q-4 2.4-5 1.5-7-.45-10.55.95L-12.3-.5q-1.2-1.5-.8-1.95 7.5-3.05 9.7.25" fill="#050505" fill-rule="evenodd" transform="translate(15.95 8.55)"/><path d="M-7.25 1.4Q-7.75.3-6.8.05l4.15.15q-.15 1-1.15 1.5l-3.45-.3" fill="#ffcd00" fill-rule="evenodd" transform="translate(15.95 8.55)"/><path d="M-6.75 1.4Q-4.8.7-2.8.55q-.45.85-1 1.15l-2.95-.3" fill="#ff7800" fill-rule="evenodd" transform="translate(15.95 8.55)"/><path d="m5.65-.75.3.15.4 2.65q.15 2.2-.25 2.6.1-1.5-.75-3.2Q4.4-.35 3.1-.6l2.55-.15M-10.8 3l.3.15q-2 .85-.3 1.55l4.5.2q-1.05.55-4.45 1.15-1.85.35-1.55 1.9-1.85-.95-1.3-2.8.6-2.4 2.8-2.15m5.4-6.7.75.35-3.6.4-3.9 2.1q-1.2-1.5 1.55-2.35 4.25-1.1 5.2-.5" fill="#999" fill-rule="evenodd" transform="translate(15.95 8.55)"/><path d="M-11.25 5q-1.85.05-2.15 1.65-.75-.25.05-1.75.75-1.45 1.5-1.45-.65 1.3.6 1.55m1.8-8.35q-.75 0-1.45.55-1.25 1.35-1.65 1.45-.1-1.7 2.7-2h.4" fill="#fff" fill-rule="evenodd" transform="translate(15.95 8.55)"/><path d="M-14.8 8.3h.3q.2.4 2.65 1 1.55.6 3.1.6l7.35-.65q-5.35 1.55-8.15 1.45l-4.6-.65q-1.4-.3-1.5-.8-.45-1.1.85-.95" fill="#333" fill-rule="evenodd" transform="translate(15.95 8.55)"/></g></defs></svg>

<?xml version="1.0" encoding="UTF-8" standalone="no"?>
<svg xmlns:xlink="http://www.w3.org/1999/xlink" height="38.3px" width="36.05px" xmlns="http://www.w3.org/2000/svg">
  <g transform="matrix(1.0, 0.0, 0.0, 1.0, 23.8, 14.85)">
    <use height="22.05" transform="matrix(1.0, 0.0, 0.0, 1.0, -15.95, -8.55)" width="24.35" xlink:href="#shape0"/>
  </g>
  <defs>
    <g id="shape0" transform="matrix(1.0, 0.0, 0.0, 1.0, 15.95, 8.55)">
      <path d="M-6.4 -1.2 Q-7.65 -2.45 -6.3 -3.7 -6.85 -4.55 -6.35 -5.6 L-5.75 -6.5 -5.6 -6.8 Q-0.65 -8.45 5.1 -7.75 6.6 -6.85 6.65 4.75 7.4 4.8 7.95 5.4 L8.35 6.95 Q8.5 8.3 8.25 8.65 L6.85 10.0 Q5.65 10.95 5.6 10.3 L5.6 8.75 3.65 9.8 3.65 11.7 Q-0.3 13.45 -0.65 12.65 L-0.8 11.15 -3.55 11.7 -3.55 13.25 Q-3.75 13.75 -8.65 13.25 L-8.8 11.9 -10.9 11.55 -11.05 12.8 -13.6 12.9 Q-15.35 12.5 -15.75 11.65 -16.3 9.05 -15.35 8.3 L-14.25 8.05 Q-14.3 5.15 -13.65 4.25 -13.05 3.3 -10.25 2.5 -9.4 1.15 -7.6 1.15 -8.3 -0.75 -6.4 -1.2" fill="#000000" fill-rule="evenodd" stroke="none"/>
      <path d="M-14.0 8.2 Q-7.85 10.5 -0.55 8.55 5.4 7.0 6.5 5.15" fill="none" stroke="#ffffff" stroke-linecap="round" stroke-linejoin="round" stroke-width="0.5"/>
      <path d="M-9.1 2.5 Q-9.1 1.55 -7.55 1.75 L-3.9 2.3 Q-4.75 3.5 -5.85 3.8 -6.9 2.95 -9.1 2.5" fill="#ffcd00" fill-rule="evenodd" stroke="none"/>
      <path d="M-8.35 2.65 L-4.3 2.8 -5.85 3.8 Q-6.6 3.2 -8.35 2.65" fill="#ff7800" fill-rule="evenodd" stroke="none"/>
      <path d="M0.7 -0.95 L-8.15 -1.55 -8.55 -1.85 -8.65 -2.6 Q-8.65 -5.35 -6.75 -7.2 L-6.65 -7.2 Q-5.9 -8.3 -0.25 -8.55 L6.25 -8.25 6.5 -8.05 Q8.45 -4.6 8.1 -2.55 L7.65 -2.0 Q6.35 -1.1 0.7 -0.95" fill="#9a0000" fill-rule="evenodd" stroke="none"/>
      <path d="M1.2 -1.95 L-7.1 -2.45 Q-7.4 -3.0 -6.8 -4.6 -6.15 -6.2 -5.6 -6.6 -5.25 -7.3 -0.3 -7.55 L5.35 -7.35 Q6.85 -4.35 6.65 -2.95 6.5 -2.25 1.2 -1.95" fill="#ffcd00" fill-rule="evenodd" stroke="none"/>
      <path d="M6.65 -2.95 Q6.5 -2.6 5.45 -2.45 -3.85 -3.25 -6.75 -4.75 -6.15 -6.2 -5.6 -6.6 -5.25 -7.3 -0.3 -7.55 L5.35 -7.35 Q6.85 -4.35 6.65 -2.95" fill="#ff6900" fill-rule="evenodd" stroke="none"/>
      <path d="M-1.4 5.8 Q0.0 7.95 -0.15 8.2 L-2.75 8.8 Q-3.5 6.55 -4.9 4.75 L-3.25 3.45 Q-2.8 3.75 -1.4 5.8" fill="#ffff00" fill-rule="evenodd" stroke="none"/>
      <path d="M-3.4 7.3 L-1.35 5.9 Q0.0 7.95 -0.15 8.2 L-2.75 8.8 -3.4 7.3" fill="#ffb400" fill-rule="evenodd" stroke="none"/>
      <path d="M2.35 3.55 Q4.15 6.3 3.85 6.65 L1.25 7.7 Q2.1 7.0 -2.25 2.2 L-0.8 0.05 Q0.4 0.7 2.35 3.55" fill="#ffff00" fill-rule="evenodd" stroke="none"/>
      <path d="M3.85 6.65 L1.25 7.7 Q1.45 7.5 -0.05 5.05 L1.65 2.65 Q4.25 6.05 3.85 6.65" fill="#ffb400" fill-rule="evenodd" stroke="none"/>
      <path d="M-3.5 -2.45 Q-2.25 -0.55 -2.8 2.05 -3.05 2.95 -3.8 2.9 -4.1 2.15 -5.05 1.25 -7.1 -0.7 -10.6 0.7 -11.1 0.7 -12.35 -0.75 -13.6 -2.25 -13.25 -2.7 -5.75 -5.75 -3.5 -2.45" fill="#050505" fill-rule="evenodd" stroke="none"/>
      <path d="M-3.4 -2.2 Q-2.15 -0.35 -2.75 2.3 -2.9 3.2 -3.75 3.15 -4.0 2.4 -5.0 1.5 -7.0 -0.45 -10.55 0.95 L-12.3 -0.5 Q-13.5 -2.0 -13.1 -2.45 -5.6 -5.5 -3.4 -2.2" fill="#050505" fill-rule="evenodd" stroke="none"/>
      <path d="M-7.25 1.4 Q-7.75 0.3 -6.8 0.05 L-2.65 0.2 Q-2.8 1.2 -3.8 1.7 L-7.25 1.4" fill="#ffcd00" fill-rule="evenodd" stroke="none"/>
      <path d="M-6.75 1.4 Q-4.8 0.7 -2.8 0.55 -3.25 1.4 -3.8 1.7 L-6.75 1.4" fill="#ff7800" fill-rule="evenodd" stroke="none"/>
      <path d="M5.65 -0.75 L5.95 -0.6 6.35 2.05 Q6.5 4.25 6.1 4.65 6.2 3.15 5.35 1.45 4.4 -0.35 3.1 -0.6 L5.65 -0.75" fill="#999999" fill-rule="evenodd" stroke="none"/>
      <path d="M-10.8 3.0 L-10.5 3.15 Q-12.5 4.0 -10.8 4.7 L-6.3 4.9 Q-7.35 5.45 -10.75 6.05 -12.6 6.4 -12.3 7.95 -14.15 7.0 -13.6 5.15 -13.0 2.75 -10.8 3.0" fill="#999999" fill-rule="evenodd" stroke="none"/>
      <path d="M-5.4 -3.7 L-4.65 -3.35 -8.25 -2.95 -12.15 -0.85 Q-13.35 -2.35 -10.6 -3.2 -6.35 -4.3 -5.4 -3.7" fill="#999999" fill-rule="evenodd" stroke="none"/>
      <path d="M-11.25 5.0 Q-13.1 5.05 -13.4 6.65 -14.15 6.4 -13.35 4.9 -12.6 3.45 -11.85 3.45 -12.5 4.75 -11.25 5.0" fill="#ffffff" fill-rule="evenodd" stroke="none"/>
      <path d="M-9.45 -3.35 Q-10.2 -3.35 -10.9 -2.8 -12.15 -1.45 -12.55 -1.35 -12.65 -3.05 -9.85 -3.35 L-9.45 -3.35" fill="#ffffff" fill-rule="evenodd" stroke="none"/>
      <path d="M-14.8 8.3 L-14.5 8.3 Q-14.3 8.7 -11.85 9.3 -10.3 9.9 -8.75 9.9 L-1.4 9.25 Q-6.75 10.8 -9.55 10.7 L-14.15 10.05 Q-15.55 9.75 -15.65 9.25 -16.1 8.15 -14.8 8.3" fill="#333333" fill-rule="evenodd" stroke="none"/>
    </g>
  </defs>
</svg>
